X:3731
T:Lo Ribatel
O:england
D:Accordéonistes en Aubrac: Roger Vaissade
M:3/8
L:1/16
K:C
ef|g^fgagf|g3ede|f2gfed|e2c2ef|\
g^fgagf|g3ede|f2gfed|c4:|
|:G2|cBcdec|d4de|f2e2d2|e2c2G2|\
cBcdec|d4de|f2e2d2|c4:|


